svgs/cco/form-line.svg

<svg xmlns="http://www.w3.org/2000/svg" viewBox="0 0 16 16" class="symbol symbol-form-line" aria-labelledby="title" role="img"><title id="title">form-line icon</title><path class="cls-1" d="M11.285 1.028H2v13.944h12v-11.1zM11.03 2.64l1.472 1.4H11.03zm1.994 11.389H2.946v-12h7.079v2.987h3zm-4-8.006H5.032V7h3.989zM5.032 10H11v-.98H5.032z" data-name="Layer 1" role="presentation"/></svg>

<svg xmlns="http://www.w3.org/2000/svg" viewBox="0 0 16 16" aria-labelledby="title" role="img" class="symbol symbol-form-line"><title id="title">form-line icon</title><g id="Layer_1" data-name="Layer 1"><path d="M11.29,1H2V15H14V3.87ZM11,2.64,12.5,4H11ZM13,14H2.95V2H10V5h3ZM9,6H5V7H9ZM5,10h6V9H5Z" style="fill:#231f20" role="presentation"/></g></svg>
